build/images/icons/star.svg

<svg width="32" height="32" viewBox="0 0 32 32" fill="none" xmlns="http://www.w3.org/2000/svg">
<path d="M16.3333 23.36L24.5733 28.3333L22.3867 18.96L29.6667 12.6533L20.08 11.84L16.3333 3L12.5867 11.84L3 12.6533L10.28 18.96L8.09333 28.3333L16.3333 23.36Z"/>
</svg>

<svg width="32" height="32" fill="none" xmlns="http://www.w3.org/2000/svg"><path d="M16.333 23.36l8.24 4.973-2.186-9.373 7.28-6.307-9.587-.813L16.333 3l-3.746 8.84L3 12.653l7.28 6.307-2.187 9.373 8.24-4.973z"/></svg>
